client/svg/menu.svg

<svg xmlns="http://www.w3.org/2000/svg" width="32" height="32" viewBox="0 0 32 32"><path d="M25.333 22.667h-18.667c-1.471 0-2.667 1.196-2.667 2.667s1.196 2.667 2.667 2.667h18.667c1.471 0 2.667-1.196 2.667-2.667s-1.196-2.667-2.667-2.667zM25.333 13.333h-18.667c-1.471 0-2.667 1.196-2.667 2.667s1.196 2.667 2.667 2.667h18.667c1.471 0 2.667-1.196 2.667-2.667s-1.196-2.667-2.667-2.667zM25.333 4h-18.667c-1.471 0-2.667 1.196-2.667 2.667s1.196 2.667 2.667 2.667h18.667c1.471 0 2.667-1.196 2.667-2.667s-1.196-2.667-2.667-2.667z"/></svg>

<svg xmlns="http://www.w3.org/2000/svg" width="32" height="32" viewBox="0 0 32 32"><path d="M25.333 22.667H6.666C5.196 22.667 4 23.863 4 25.334S5.194 28 6.665 28h18.667C26.803 28 28 26.806 28 25.335s-1.196-2.667-2.667-2.667zm0-9.334H6.666C5.196 13.333 4 14.53 4 16s1.195 2.667 2.666 2.667h18.667C26.803 18.667 28 17.47 28 16s-1.196-2.667-2.667-2.667zm0-9.333H6.666C5.196 4 4 5.196 4 6.667s1.195 2.667 2.666 2.667h18.667c1.47 0 2.667-1.196 2.667-2.667S26.804 4 25.333 4z"/></svg>
